X: 33450
T: Rabbits Sitting In The Bush
R: polka
M: 2/4
K: Edorian
|:BE BA|FD FA|BE BA|FD E2|
BE BA|FD FA|Bc dD|FE E2:|
|:B/e/e BA|fd/f/ ed|Bc/B/ AA|fe e2|
eB AA|fd/f/ ed|Bc dD|FE E2:|

